assets/images/footer/brands/plainadmin.svg

<svg fill="none" height="21" viewBox="0 0 127 21" width="127" xmlns="http://www.w3.org/2000/svg"><path d="m26.7806 17.2122h2.5686v-4.6958h2.7186c3.2836 0 5.0048-1.9331 5.0048-4.64292 0-2.70983-1.7654-4.60759-5.0048-4.60759h-5.2961zm2.5686-6.7701v-5.0313h2.3567c1.9243 0 2.7805 1.01508 2.7805 2.49799 0 1.4829-.8827 2.53331-2.7628 2.53331zm12.3575-7.1409h-2.4715v13.911h2.5156zm5.6491 14.1229c.6264.0622 1.2575-.056 1.819-.3406.5614-.2847 1.0298-.7239 1.3498-1.2659h.0795v1.4299h2.4097v-7.0173c0-2.75393-2.295-3.58365-4.3251-3.58365-2.242 0-3.9633.97978-4.5105 2.87754l2.3479.32659c.1715-.42669.4766-.78633.8697-1.02503.393-.2387.8528-.3436 1.3105-.29899 1.1652 0 1.7654.58257 1.7654 1.60644 0 .7062-.7591.7415-2.6481.9357-2.0654.2207-4.0426.8209-4.0426 3.1688.0529 2.1008 1.58 3.1865 3.6101 3.1865zm.6532-1.7654c-1.0504 0-1.7654-.4678-1.7654-1.3681 0-.9004.8827-1.3417 1.9596-1.4918.7925-.0515 1.5724-.2242 2.3126-.5119v1.2269c-.0175.3031-.0962.5994-.2312.8713s-.3237.5136-.5546.7107c-.2308.197-.4992.3454-.7889.4361-.2897.0906-.5947.1218-.8968.0915zm7.494 1.5977h2.5068v-10.46862h-2.4715zm1.2622-11.91621c.1889.01321.3786-.0122.5574-.07469.1788-.06248.343-.16072.4825-.28874.1396-.12802.2517-.28313.3293-.45587.0777-.17274.1194-.35949.1225-.54886-.0285-.36554-.1938-.70688-.463-.95585-.2692-.24898-.6223-.38727-.989-.38727-.3666 0-.7198.13829-.989.38727-.2691.24897-.4345.59031-.463.95585.0161.36841.1774.71547.4487.96525.2712.24978.6304.38195.9989.3676zm6.3376 5.79921c-.0328-.3135.0032-.6303.1057-.9284.1024-.29804.2688-.57011.4874-.79713.2186-.22703.4842-.40353.7782-.51714s.6092-.16159.9237-.14057c.2899-.0166.5798.03084.8493.13895.2694.10811.5117.27422.7097.48655s.3469.46565.4359.74194c.0891.2764.1162.5689.0794.8569v6.2582h2.5068v-6.6642c0-2.498-1.4476-3.92795-3.6455-3.92795-.6619-.05053-1.3231.10578-1.8924.44732-.5692.34154-1.0183.85145-1.2852 1.45927h-.1236v-1.76536h-2.4009v10.42442h2.5068zm10.0096 6.1081 1.5182-4.1927h5.967l1.5182 4.1927h1.3593l-5.1284-13.93748h-1.3946l-5.1637 13.90218zm1.9331-5.296 2.5598-6.99087h.0706l2.5156 6.92907zm14.4406 5.552c.7009.0205 1.3912-.1751 1.977-.5605.5859-.3853 1.039-.9415 1.2978-1.5932h.15v1.933h1.2093v-13.97278h-1.2446v5.44614h-.1147c-.2537-.64854-.7024-1.20235-1.2842-1.58497-.5819-.38263-1.2681-.57519-1.9641-.55112-2.648 0-4.4134 2.17139-4.4134 5.38433 0 3.213 1.8095 5.4285 4.4222 5.4285zm.1501-1.1033c-2.1184 0-3.2836-1.889-3.2836-4.3163 0-2.42741 1.1475-4.26338 3.2836-4.26338s3.2571 1.76536 3.2571 4.26338c0 2.4979-1.1563 4.2457-3.2306 4.2457zm7.9971.8826h1.2269v-6.7613c-.0233-.3591.0283-.71919.1515-1.05731.1233-.33812.3156-.6469.5646-.90672.2491-.25982.5497-.465.8817-.60251.333-.13751.69-.20433 1.05-.19623.313-.02046.627.02722.92.13975s.558.28723.777.51207.387.49448.492.79033c.104.29586.144.6109.115.92342v7.0615h1.227v-6.8408c-.029-.3435.017-.68907.134-1.01329s.302-.61946.544-.86567c.241-.24621.532-.4376.854-.56117s.666-.17643 1.01-.15497c.325-.02356.651.02534.954.14317.304.11783.578.30165.801.53816.224.23651.393.51981.494.82941s.132.63776.09.96076v6.9908h1.236v-6.982c0-2.33907-1.227-3.57482-3.204-3.57482-.657-.0456-1.311.11208-1.875.45163-.564.33954-1.01.84447-1.276 1.44613h-.089c-.24-.55237-.633-1.02484-1.132-1.36202-.499-.33719-1.084-.52513-1.686-.54181-.602-.01667-1.196.13861-1.713.44766-.5174.30905-.9356.75906-1.2061 1.29729h-.1147v-1.60648h-1.2004zm16.7707 0h1.245v-10.49502h-1.245zm.627-12.22507c.119.00598.239-.01242.351-.05409.113-.04167.215-.10574.302-.18831.086-.08256.155-.18191.203-.29198.047-.11007.071-.22858.071-.3483 0-.24581-.098-.48155-.272-.65536s-.409-.27146-.655-.27146-.482.09765-.655.27146c-.174.17381-.272.40955-.272.65536.009.11686.041.23078.094.33512.054.10435.127.19702.217.27261.089.07559.193.13259.305.16767s.23.04755.346.03666zm5.111 5.70207c-.026-.3888.031-.77853.167-1.14369s.348-.69743.621-.97502c.274-.27759.603-.4942.966-.63562s.752-.20445 1.141-.18495c.363-.01535.725.04715 1.063.1833.337.13614.641.3428.892.6061.25.2633.442.57717.562.92056.119.34339.164.70842.131 1.07052v6.6818h1.236v-6.8231c0-2.47147-1.466-3.81315-3.611-3.81315-.638-.04944-1.277.09199-1.835.40631s-1.01.78736-1.298 1.35905h-.115v-1.62413h-1.2v10.42442h1.235z" fill="#fff"/><g fill="#2f80ed"><path d="m22.7226 8.67459-3.89-6.53615c-.1977-.34542-.483-.63258-.8272-.83245-.3441-.19988-.7349-.3054-1.1329-.3059h-7.73482c-.40182-.003502-.79731.10012-1.14579.3002-.34848.20007-.63736.48938-.83692.83815l-3.8674 6.53615c-.18871.34704-.28757.73579-.28757 1.13082 0 .39499.09886.78379.28757 1.13079l3.8674 6.5362c.19956.3487.48844.6381.83692.8381.34848.2001.74397.3037 1.14579.3002h7.73482c.3972.0003.7875-.1041 1.1316-.3026s.6299-.4842.8285-.8282l3.8674-6.5361c.1928-.3463.2959-.7354.2999-1.13175.0039-.39635-.0914-.78739-.2773-1.13746zm-1.5078 1.41731-3.89 6.5361c-.052.0944-.1302.1716-.2252.2224-.095.0509-.2027.0731-.31.0641h-7.65192c-.10645.0031-.21186-.0218-.30575-.072-.0939-.0503-.17302-.1242-.22951-.2145l-3.85986-6.5361c-.04838-.09587-.07358-.20174-.07358-.30911s.0252-.21324.07358-.30909l3.8674-6.5286c.05203-.09434.13026-.17159.22525-.22243.09498-.05083.20265-.07308.31001-.06405h7.72728c.1064-.00307.2118.02176.3057.07201s.1731.12419.2295.21447l3.8674 6.53614c.0509.09608.0729.20479.0636.31309-.0094.1083-.0498.21157-.1163.29757z"/><path d="m16.5257 5.69659h-1.553c-.6074-.00412-1.1921.23071-1.6279.65381-.4358.42311-.6878 1.00058-.7016 1.60783v1.651h-1.6811c-.6074-.00412-1.1921.23071-1.62789.65377-.4358.4232-.68781 1.0006-.70164 1.6079v1.5077c.00397.3206.13464.6266.36346.8512s.53721.3495.85782.3475h1.50775c.6074.0041 1.1921-.2307 1.6279-.6538s.6878-1.0006.7016-1.6078v-1.6209h1.6887c.6074.0041 1.1921-.2307 1.6279-.6538.4357-.42311.6878-1.00058.7016-1.60783v-1.50776c.003-.15841-.0253-.31586-.0831-.46335-.0579-.14749-.1442-.28214-.2541-.39625-.11-.11411-.2413-.20546-.3865-.26881s-.3015-.09747-.4599-.10041zm-3.8825 6.63411c-.002.1614-.0357.3208-.0993.4692-.0636.1483-.1557.2826-.2712.3954-.1155.1127-.2521.2015-.402.2614-.1498.06-.31.0898-.4714.0878h-1.50775c-.03472 0-.06814-.0132-.09339-.0371-.02524-.0238-.04038-.0564-.04231-.0911v-1.5077c.00197-.1614.03571-.3208.09928-.4692.06358-.1483.15577-.2827.27127-.3954s.2521-.2015.4019-.2614c.1499-.06.3101-.0898.4715-.0878h1.6811zm4.0182-3.93522c-.004.32659-.137.63834-.3701.86717-.2331.22882-.5472.35613-.8738.35411h-1.6887v-1.65099c.001-.16202.034-.32224.0971-.47144.0632-.14921.1552-.28446.2708-.39796.1156-.11351.2525-.20303.4029-.26342.1503-.0604.3111-.09046.4731-.08847h1.553c.036 0 .0705.0143.0959.03975.0255.02544.0398.05996.0398.09595z" stroke="#2f80ed" stroke-width=".5"/></g></svg>

<svg width="127" height="21" viewBox="0 0 127 21" fill="none" xmlns="http://www.w3.org/2000/svg">
<path d="M26.7806 17.2122H29.3492V12.5164H32.0678C35.3514 12.5164 37.0726 10.5833 37.0726 7.87348C37.0726 5.16365 35.3072 3.26589 32.0678 3.26589H26.7717L26.7806 17.2122ZM29.3492 10.4421V5.4108H31.7059C33.6302 5.4108 34.4864 6.42588 34.4864 7.90879C34.4864 9.39169 33.6037 10.4421 31.7236 10.4421H29.3492ZM41.7067 3.3012H39.2352V17.2122H41.7508L41.7067 3.3012ZM47.3558 17.4241C47.9822 17.4863 48.6133 17.3681 49.1748 17.0835C49.7362 16.7988 50.2046 16.3596 50.5246 15.8176H50.6041V17.2475H53.0138V10.2302C53.0138 7.47627 50.7188 6.64655 48.6887 6.64655C46.4467 6.64655 44.7254 7.62633 44.1782 9.52409L46.5261 9.85068C46.6976 9.42399 47.0027 9.06435 47.3958 8.82565C47.7888 8.58695 48.2486 8.48205 48.7063 8.52666C49.8715 8.52666 50.4717 9.10923 50.4717 10.1331C50.4717 10.8393 49.7126 10.8746 47.8236 11.0688C45.7582 11.2895 43.781 11.8897 43.781 14.2376C43.8339 16.3384 45.361 17.4241 47.3911 17.4241H47.3558ZM48.009 15.6587C46.9586 15.6587 46.2436 15.1909 46.2436 14.2906C46.2436 13.3902 47.1263 12.9489 48.2032 12.7988C48.9957 12.7473 49.7756 12.5746 50.5158 12.2869V13.5138C50.4983 13.8169 50.4196 14.1132 50.2846 14.3851C50.1496 14.657 49.9609 14.8987 49.73 15.0958C49.4992 15.2928 49.2308 15.4412 48.9411 15.5319C48.6514 15.6225 48.3464 15.6537 48.0443 15.6234L48.009 15.6587ZM55.503 17.2564H58.0098V6.78778H55.5383L55.503 17.2564ZM56.7652 5.34019C56.9541 5.3534 57.1438 5.32799 57.3226 5.2655C57.5014 5.20302 57.6656 5.10478 57.8051 4.97676C57.9447 4.84874 58.0568 4.69363 58.1344 4.52089C58.2121 4.34815 58.2538 4.1614 58.2569 3.97203C58.2284 3.60649 58.0631 3.26515 57.7939 3.01618C57.5247 2.7672 57.1716 2.62891 56.8049 2.62891C56.4383 2.62891 56.0851 2.7672 55.8159 3.01618C55.5468 3.26515 55.3814 3.60649 55.3529 3.97203C55.369 4.34044 55.5303 4.6875 55.8016 4.93728C56.0728 5.18706 56.432 5.31923 56.8005 5.30488L56.7652 5.34019ZM63.1028 11.1394C63.07 10.8259 63.106 10.5091 63.2085 10.211C63.3109 9.91296 63.4773 9.64089 63.6959 9.41387C63.9145 9.18684 64.1801 9.01034 64.4741 8.89673C64.7681 8.78312 65.0833 8.73514 65.3978 8.75616C65.6877 8.73956 65.9776 8.787 66.2471 8.89511C66.5165 9.00322 66.7588 9.16933 66.9568 9.38166C67.1548 9.59399 67.3037 9.84731 67.3927 10.1236C67.4818 10.4 67.5089 10.6925 67.4721 10.9805V17.2387H69.9789V10.5745C69.9789 8.0765 68.5313 6.64655 66.3334 6.64655C65.6715 6.59602 65.0103 6.75233 64.441 7.09387C63.8718 7.43541 63.4227 7.94532 63.1558 8.55314H63.0322V6.78778H60.6313V17.2122H63.1381L63.1028 11.1394ZM73.1124 17.2475L74.6306 13.0548H80.5976L82.1158 17.2475H83.4751L78.3467 3.31002H76.9521L71.7884 17.2122L73.1124 17.2475ZM75.0455 11.9515L77.6053 4.96063H77.6759L80.1915 11.8897L75.0455 11.9515ZM89.4861 17.5035C90.187 17.524 90.8773 17.3284 91.4631 16.943C92.049 16.5577 92.5021 16.0015 92.7609 15.3498H92.9109V17.2828H94.1202V3.31002H92.8756V8.75616H92.7609C92.5072 8.10762 92.0585 7.55381 91.4767 7.17119C90.8948 6.78856 90.2086 6.596 89.5126 6.62007C86.8646 6.62007 85.0992 8.79146 85.0992 12.0044C85.0992 15.2174 86.9087 17.4329 89.5214 17.4329L89.4861 17.5035ZM89.6362 16.4002C87.5178 16.4002 86.3526 14.5112 86.3526 12.0839C86.3526 9.65649 87.5001 7.82052 89.6362 7.82052C91.7723 7.82052 92.8933 9.58588 92.8933 12.0839C92.8933 14.5818 91.737 16.3296 89.6627 16.3296L89.6362 16.4002ZM97.6333 17.2828H98.8602V10.5215C98.8369 10.1624 98.8885 9.80231 99.0117 9.46419C99.135 9.12607 99.3273 8.81729 99.5763 8.55747C99.8254 8.29765 100.126 8.09247 100.458 7.95496C100.791 7.81745 101.148 7.75063 101.508 7.75873C101.821 7.73827 102.135 7.78595 102.428 7.89848C102.721 8.01101 102.986 8.18571 103.205 8.41055C103.424 8.63539 103.592 8.90503 103.697 9.20088C103.801 9.49674 103.841 9.81178 103.812 10.1243V17.1858H105.039V10.345C105.01 10.0015 105.056 9.65593 105.173 9.33171C105.29 9.00749 105.475 8.71225 105.717 8.46604C105.958 8.21983 106.249 8.02844 106.571 7.90487C106.893 7.7813 107.237 7.72844 107.581 7.7499C107.906 7.72634 108.232 7.77524 108.535 7.89307C108.839 8.0109 109.113 8.19472 109.336 8.43123C109.56 8.66774 109.729 8.95104 109.83 9.26064C109.931 9.57024 109.962 9.8984 109.92 10.2214V17.2122H111.156V10.2302C111.156 7.89113 109.929 6.65538 107.952 6.65538C107.295 6.60978 106.641 6.76746 106.077 7.10701C105.513 7.44655 105.067 7.95148 104.801 8.55314H104.712C104.472 8.00077 104.079 7.5283 103.58 7.19112C103.081 6.85393 102.496 6.66599 101.894 6.64931C101.292 6.63264 100.698 6.78792 100.181 7.09697C99.6636 7.40602 99.2454 7.85603 98.9749 8.39426H98.8602V6.78778H97.6598L97.6333 17.2828ZM114.404 17.2828H115.649V6.78778H114.404V17.2828ZM115.031 5.05773C115.15 5.06371 115.27 5.04531 115.382 5.00364C115.495 4.96197 115.597 4.8979 115.684 4.81533C115.77 4.73277 115.839 4.63342 115.887 4.52335C115.934 4.41328 115.958 4.29477 115.958 4.17505C115.958 3.92924 115.86 3.6935 115.686 3.51969C115.512 3.34588 115.277 3.24823 115.031 3.24823C114.785 3.24823 114.549 3.34588 114.376 3.51969C114.202 3.6935 114.104 3.92924 114.104 4.17505C114.113 4.29191 114.145 4.40583 114.198 4.51017C114.252 4.61452 114.325 4.70719 114.415 4.78278C114.504 4.85837 114.608 4.91537 114.72 4.95045C114.832 4.98553 114.95 4.998 115.066 4.98711L115.031 5.05773ZM120.142 10.7598C120.116 10.371 120.173 9.98127 120.309 9.61611C120.445 9.25095 120.657 8.91868 120.93 8.64109C121.204 8.3635 121.533 8.14689 121.896 8.00547C122.259 7.86405 122.648 7.80102 123.037 7.82052C123.4 7.80517 123.762 7.86767 124.1 8.00382C124.437 8.13996 124.741 8.34662 124.992 8.60992C125.242 8.87322 125.434 9.18709 125.554 9.53048C125.673 9.87387 125.718 10.2389 125.685 10.601V17.2828H126.921V10.4597C126.921 7.98823 125.455 6.64655 123.31 6.64655C122.672 6.59711 122.033 6.73854 121.475 7.05286C120.917 7.36718 120.465 7.84022 120.177 8.41191H120.062V6.78778H118.862V17.2122H120.097L120.142 10.7598Z" fill="white"/>
<path d="M22.7226 8.67459L18.8326 2.13844C18.6349 1.79302 18.3496 1.50586 18.0054 1.30599C17.6613 1.10611 17.2705 1.00059 16.8725 1.00009H9.13768C8.73586 0.996588 8.34037 1.10021 7.99189 1.30029C7.64341 1.50036 7.35453 1.78967 7.15497 2.13844L3.28757 8.67459C3.09886 9.02163 3 9.41038 3 9.80541C3 10.2004 3.09886 10.5892 3.28757 10.9362L7.15497 17.4724C7.35453 17.8211 7.64341 18.1105 7.99189 18.3105C8.34037 18.5106 8.73586 18.6142 9.13768 18.6107H16.8725C17.2697 18.611 17.66 18.5066 18.0041 18.3081C18.3482 18.1096 18.634 17.8239 18.8326 17.4799L22.7 10.9438C22.8928 10.5975 22.9959 10.2084 22.9999 9.81205C23.0038 9.4157 22.9085 9.02466 22.7226 8.67459V8.67459ZM21.2148 10.0919L17.3248 16.628C17.2728 16.7224 17.1946 16.7996 17.0996 16.8504C17.0046 16.9013 16.8969 16.9235 16.7896 16.9145H9.13768C9.03123 16.9176 8.92582 16.8927 8.83193 16.8425C8.73803 16.7922 8.65891 16.7183 8.60242 16.628L4.74256 10.0919C4.69418 9.99603 4.66898 9.89016 4.66898 9.78279C4.66898 9.67542 4.69418 9.56955 4.74256 9.4737L8.60996 2.9451C8.66199 2.85076 8.74022 2.77351 8.83521 2.72267C8.93019 2.67184 9.03786 2.64959 9.14522 2.65862H16.8725C16.9789 2.65555 17.0843 2.68038 17.1782 2.73063C17.2721 2.78088 17.3513 2.85482 17.4077 2.9451L21.2751 9.48124C21.326 9.57732 21.348 9.68603 21.3387 9.79433C21.3293 9.90263 21.2889 10.0059 21.2224 10.0919H21.2148Z" fill="#2F80ED"/>
<path d="M16.5257 5.69659H14.9727C14.3653 5.69247 13.7806 5.9273 13.3448 6.3504C12.909 6.77351 12.657 7.35098 12.6432 7.95823V9.60923H10.9621C10.3547 9.60511 9.77 9.83994 9.33421 10.263C8.89841 10.6862 8.6464 11.2636 8.63257 11.8709V13.3786C8.63654 13.6992 8.76721 14.0052 8.99603 14.2298C9.22485 14.4544 9.53324 14.5793 9.85385 14.5773H11.3616C11.969 14.5814 12.5537 14.3466 12.9895 13.9235C13.4253 13.5004 13.6773 12.9229 13.6911 12.3157V10.6948H15.3798C15.9872 10.6989 16.5719 10.4641 17.0077 10.041C17.4434 9.61789 17.6955 9.04042 17.7093 8.43317V6.92541C17.7123 6.767 17.684 6.60955 17.6262 6.46206C17.5683 6.31457 17.482 6.17992 17.3721 6.06581C17.2621 5.9517 17.1308 5.86035 16.9856 5.797C16.8404 5.73365 16.6841 5.69953 16.5257 5.69659V5.69659ZM12.6432 12.3307C12.6412 12.4921 12.6075 12.6515 12.5439 12.7999C12.4803 12.9482 12.3882 13.0825 12.2727 13.1953C12.1572 13.308 12.0206 13.3968 11.8707 13.4567C11.7209 13.5167 11.5607 13.5465 11.3993 13.5445H9.89155C9.85683 13.5445 9.82341 13.5313 9.79816 13.5074C9.77292 13.4836 9.75778 13.451 9.75585 13.4163V11.9086C9.75782 11.7472 9.79156 11.5878 9.85513 11.4394C9.91871 11.2911 10.0109 11.1567 10.1264 11.044C10.2419 10.9313 10.3785 10.8425 10.5283 10.7826C10.6782 10.7226 10.8384 10.6928 10.9998 10.6948H12.6809L12.6432 12.3307ZM16.6614 8.39548C16.6574 8.72207 16.5244 9.03382 16.2913 9.26265C16.0582 9.49147 15.7441 9.61878 15.4175 9.61676H13.7288V7.96577C13.7298 7.80375 13.7628 7.64353 13.8259 7.49433C13.8891 7.34512 13.9811 7.20987 14.0967 7.09637C14.2123 6.98286 14.3492 6.89334 14.4996 6.83295C14.6499 6.77255 14.8107 6.74249 14.9727 6.74448H16.5257C16.5617 6.74448 16.5962 6.75878 16.6216 6.78423C16.6471 6.80967 16.6614 6.84419 16.6614 6.88018V8.39548Z" fill="#2F80ED" stroke="#2F80ED" stroke-width="0.5"/>
</svg>
